X:541
T:54. SCATTERY ISLAND SLIDE
O:Ireland
M:12/8
L:1/8
K:D
P:A
z|\
F2A dcd F2A dcd|efe cBA efe cBA|
F2A dcd F2A dcd|efe cBA f2e d2 ::
P:B
f|\
aba f2e d3 def| gBB fed e3 e2f|
aba f2e d3 dzd|efe cBA f2e d2 :|
